X:1
T:As Flows the River
T:As Flows the River
T:William Savage Pitts
T:Eli Corwin, 1878
T:Public Domain Courtesy of the Cyber Hymnal™
C:William Savage Pitts
Z:Public Domain
Z:Courtesy of the Cyber Hymnal™
%%score ( 1 2 ) ( 3 4 )
L:1/8
Q:1/4=100
M:4/4
K:Eb
V:1 treble 
V:2 treble 
V:3 bass 
V:4 bass 
V:1
 (E>F) | [EG]2 [EG]2 [EG][EG][FA][EG] | [DF]6 [DF]2 | [DF]2 ([DF][DF]) [CE]2 [DF]2 | [EG]6 (E>F) | %5
w: 1.~As *|flows the ri- ver, calm and|deep, In|si- lence * toward the|sea, So *|
w: 2.~He *|kind- ly keep- eth those He|loves, Se-|cure from * ev- ery|fear. From~the *|
w: 3.~What *|peace He bring- eth to my|heart, Deep|as the * sound- less|sea. How *|
w: 4.~How *|calm at ev- en sinks the|sun Be-|yond the * cloud- ed|west; So, *|
 [EG]2 [EG]2 [EG][EG] ([FA][EG]) | [DF]2 [DF]2 [DF][DF] (GF) | E2 E2 [DF]2 [DF]2 | E6 || %9
w: flow- eth ev- er, And *|ceas- eth ne- ver, The *|love of God for|me.|
w: eye that weep- eth For *|one that sleep- eth, He *|gent- ly dries the|tear.|
w: sweet- ly sing- eth The *|soul that cling- eth My *|lov- ing Lord, to|Thee.|
w: tem- pest driv- en In- *|to the ha- ven, I *|reach the longed for|rest.|
"^Refrain" ([EG]>[FA]) | [GB]2 [GB]2 [GB][GB][Ac][Ad] | e6 [Ge]2 | [Fd]2 [Fd]2 [Ec]2 [Fd]2 | %13
w: ||||
w: ||||
w: ||||
w: ||||
 ([Ge]2 [Ac]2 [GB]2) ([EG]>[FA]) | [GB]2 [GB]2 [GB][GB] ([Ac][GB]) | [EG]2 [EG]2 [EG][EG] (AG) | %16
w: |||
w: |||
w: |||
w: |||
 [DF]2 [DF]2 [DG]2 [DF]2 | E6 |] %18
w: ||
w: ||
w: ||
w: ||
V:2
 E2 | x8 | x8 | x8 | x6 E2 | x8 | x6 D2 | E2 E2 x4 | E6 || x2 | x8 | (G2 GG G2) x2 | x8 | x8 | x8 | %15
 x6 E2 | x8 | (E2 C2 B,2) |] %18
V:3
 (G,>A,) | [E,B,]2 [E,B,]2 [E,B,][E,B,][D,B,][E,B,] | [B,,B,]6 [B,,B,]2 | %3
w: ~ *|~ ~ ~ ~ ~ ~|~ ~|
 [B,,A,]2 ([B,,A,][B,,A,]) [C,G,]2 [B,,B,]2 | [E,B,]6 (G,>A,) | [E,B,]2 [E,B,]2 [E,B,][E,B,] B,2 | %6
w: ~ ~ * ~ ~|~ ~ *|~ ~ ~ ~ ~|
 [B,,A,]2 [B,,A,]2 [B,,A,][B,,A,] (B,A,) | [C,G,]2 [C,G,]2 [B,,B,]2 [B,,A,]2 | [E,G,]6 || [E,B,]2 | %10
w: ~ ~ ~ ~ ~ *|~ ~ ~ ~|~|As|
 [E,E]2 [E,E]2 [E,E][E,E][E,E][E,B,] | ([E,B,]2 [E,B,][E,B,] [E,B,]2) [E,B,]2 | %12
w: flows the ri- ver, calm and|deep, * * * In|
 [B,,B,]2 [B,,A,]2 [C,G,]2 [B,,B,]2 | [E,B,]6 [E,B,]2 | [E,E]2 [E,E]2 [E,E][E,E] [E,E]2 | %15
w: si- lence toward the|sea, So|flow- eth ev- er, and|
 [E,B,]2 [E,B,]2 [E,B,][E,B,] (CB,) | [B,,A,]2 [B,,A,]2 [B,,B,]2 [B,,A,]2 | (G,2 A,2 G,2) |] %18
w: ceas- eth ne- ver, The *|love of God to|me. * *|
V:4
 E,2 | x8 | x8 | x8 | x6 E,2 | x6 (D,E,) | x6 B,,2 | x8 | x6 || x2 | x8 | x8 | x8 | x8 | x8 | %15
 x6 E,2 | x8 | E,4 x2 |] %18

